X:1
T: Lady Baird's Strathspey
C:
R:Strathspey
Q: 128
K:A
M:4/4
L:1/16
|:a2|ec3 c3B A3B A2E2|F3A E3A F2A2 E2a2|ec3 c3B A3B A2B2|ce3 e3^d e6 a2|
ec3 c3B A3B A2E2|F3A E3A F2A2 E2a2|ec3 c3B A3B A2B2|ce3 e3^d e6 =g2|
fd3 d3B c3d e2c2|dB3 B3G A3B c2E2|F3A E3A F3A E3d|dcBA cBAG A4 A2=g2|
fd3 d3B c3d e2c2|dB3 B3G A3B c2E2|F3A E3A F3A E3d|dcBA cBAG A4 A2:|
